X: 17572
T: Hob Beneath The Pipe, The
R: jig
M: 6/8
K: Edorian
|:E2 B BAG|FDC DFA|GBd A2G|FAd fed|
eBd ~c3|dAG FED|cdA BAF|1 DFA BAF:|2 DFA Bcd||
|:e2 e edc|d2 e fed|gaa fgg|efe Bcd|
e2 e edc|d2 e fed|cdA BAF|1 DFA Bcd:|2 DFA BAF||

